azure-patterns/svg-curly-brackets.svg

<svg xmlns="http://www.w3.org/2000/svg" viewBox="0 0 48 48">
                                
                            
    <path d="M13.9086 47.9995C10.5811 47.9995 8.13991 47.2907 6.58493 45.8732C5.02994 44.4557 4.2537 42.1458 4.2562 38.9433V31.2259C4.2562 27.8084 2.83747 26.0997 0 26.0997V21.8998C2.83497 21.8998 4.2537 20.0998 4.2562 16.4998V9.27364C4.2562 6.10868 5.04619 3.77246 6.62617 2.26497C8.20616 0.757491 10.6336 0.00249997 13.9086 0V4.3087C10.9986 4.3087 9.54364 5.96368 9.54364 9.27364V16.5561C9.54364 20.481 8.18991 22.9347 5.48244 23.9172V24.026C8.18991 24.901 9.54364 27.3009 9.54364 31.2259V38.4821C9.54364 40.282 9.87614 41.5995 10.5411 42.4345C11.2061 43.2695 12.3311 43.6883 13.9161 43.6908L13.9086 47.9995Z" fill="#50E6FF"></path>
    <path d="M34.0913 43.6908C35.6738 43.6908 36.7988 43.272 37.4663 42.4345C38.1338 41.597 38.4663 40.2795 38.4638 38.4821V31.2259C38.4638 27.3009 39.8175 24.901 42.525 24.026V23.9172C39.8175 22.9347 38.4638 20.481 38.4638 16.5561V9.27364C38.4638 5.96368 37.0088 4.3087 34.0988 4.3087V0C37.3663 0 39.7912 0.749991 41.3737 2.24997C42.9562 3.74996 43.7462 6.08618 43.7437 9.25865V16.4998C43.7437 20.0998 45.1624 21.8998 47.9999 21.8998V26.0997C45.1649 26.0997 43.7462 27.8084 43.7437 31.2259V38.9433C43.7437 42.1458 42.9675 44.4557 41.415 45.8732C39.8625 47.2907 37.4213 47.9995 34.0913 47.9995V43.6908Z" fill="#0078D4"></path>
</svg>

<svg xmlns="http://www.w3.org/2000/svg" viewBox="0 0 48 48"><path d="M13.909 48c-3.328 0-5.77-.71-7.324-2.127-1.555-1.417-2.331-3.727-2.329-6.93v-7.717C4.256 27.808 2.837 26.1 0 26.1v-4.2c2.835 0 4.254-1.8 4.256-5.4V9.274c0-3.165.79-5.502 2.37-7.009C8.206.757 10.634.002 13.91 0v4.309c-2.91 0-4.365 1.655-4.365 4.965v7.282c0 3.925-1.354 6.379-4.062 7.361v.109c2.708.875 4.062 3.275 4.062 7.2v7.256c0 1.8.332 3.117.997 3.953.665.834 1.79 1.253 3.375 1.256l-.007 4.308z" fill="#50E6FF"/><path d="M34.091 43.69c1.583 0 2.708-.418 3.375-1.255.668-.838 1-2.156.998-3.953v-7.256c0-3.925 1.354-6.325 4.061-7.2v-.109c-2.707-.982-4.061-3.436-4.061-7.36V9.273c0-3.31-1.455-4.965-4.365-4.965V0c3.267 0 5.692.75 7.275 2.25 1.582 1.5 2.372 3.836 2.37 7.009v7.24c0 3.6 1.418 5.4 4.256 5.4v4.2c-2.835 0-4.254 1.71-4.256 5.127v7.717c0 3.203-.776 5.513-2.329 6.93C39.862 47.291 37.421 48 34.091 48v-4.31z" fill="#0078D4"/></svg>
